X:34
T:Neilidh O'Boyle's (Strathspey)
I:titlefont Times-Roman 24
I:partsfont Times-Roman 20
M:4/4
O:Trad. (18.2.2016/NS)
L:1/8
K:Gmaj
"G"d2 dB "Am"efge|"G/H"de (3dcB "D/A".A2A2|"G"d2 dB "C"efge|"D"dBAc "G"B<GG2:|
"G"(3Bcd gb "C"(3agf g2|"G/H"(3Bcd gb "D/A".a2 a2|"G"(3Bcd gb "C"(3agf ge|"D"dBAc "G"B<GG2|
"G"(3Bcd gb "C"(3agf g2|"G/H"(3Bcd gb "D/A"a2 ga|"G"aggf "C"gage|"D"dBAc "G"B<GG2||
%%vskip
P:Scotch Mary
K:Emin
GA|"Em"B<E ED EFGA|B<E ED G3A |B<EBA (3B^cd ed|cABG A2:|
fg|abag efed|^cdef g2 fg|abag eged|cABG A2fg|
abag efed|^cdef g2fg|afge fded|cABG AF||
%%vskip
P:Clarke's
K:Dmaj
"D"d2 dB A<F FA|"A"G<E EG "D"F<D D2 |dcdB A<F F2|faeg fddc|
d2 dB AFFA|GEEG FD D2|d2 dB AF F2|faeg fdde|
fdad fdad|(3cBA eA fAeA|fdad f de|faeg fdde|
fdad fdad|(3cBA eA fAeA|(3Bcd (3cde (3def (3efg|(3fga (3bag (3fgf (3edc|
%%vskip
%%vskip
%%vskip
%%begintext
Altan: The Rosses Highlands (Harvest Storm 1992)
%%endtext

